Yaru++/apps/scalable/wps-office-etmain.svg

<svg enable-background="new" height="256" viewBox="0 0 256 256" width="256" xmlns="http://www.w3.org/2000/svg" xmlns:xlink="http://www.w3.org/1999/xlink">
  <linearGradient id="linearGradient4358" gradientUnits="userSpaceOnUse" x1="88" x2="488" y1="88" y2="488">
    <stop offset="0" stop-opacity=".588235"/>
    <stop offset="1" stop-opacity=".205556"/>
  </linearGradient>
  <filter id="filter4380" color-interpolation-filters="sRGB" height="1.088" width="1.106" x="-.05" y="-.04">
    <feGaussianBlur stdDeviation="8.48"/>
  </filter>
  <filter id="filter4346" color-interpolation-filters="sRGB" height="1.022" width="1.026" x="-.01" y="-.01">
    <feGaussianBlur stdDeviation="2.12"/>
  </filter>
  <path d="m141.84323 74c-70.59344 0-78.18921 7.250835-77.84323 77.98706v146.01294 146.01294c-.34598 70.73623 7.24979 77.98706 77.84323 77.98706h292.31354c70.59344 0 79.78033-7.27652 77.84323-77.98706v-146.01294-146.01294c0-70.737067-7.24979-77.98706-77.84323-77.98706z" filter="url(#filter4346)" opacity=".1" transform="matrix(.5 0 0 .5 -14.116488 -20.825537)"/>
  <path d="m141.84323 74c-70.59344 0-78.18921 7.250835-77.84323 77.98706v146.01294 146.01294c-.34598 70.73623 7.24979 77.98706 77.84323 77.98706h292.31354c70.59344 0 79.78033-7.27652 77.84323-77.98706v-146.01294-146.01294c0-70.737067-7.24979-77.98706-77.84323-77.98706z" fill="url(#linearGradient4358)" filter="url(#filter4380)" opacity=".3" transform="matrix(.5 0 0 .5 -14.116488 -20.825235)"/>
  <path d="m55.695112 13.174464c-36.098811 0-39.983003 3.690159-39.806081 39.689839v74.310167 74.31016c-.176922 35.99969 3.70727 39.68984 39.806081 39.68984h148.387318c36.09881 0 40.77464-3.70276 39.80608-39.68984v-74.31016-74.310167c0-36.00011-3.70727-39.689839-39.80608-39.689839z" opacity=".2"/>
  <path d="m202.95649 15.174464c35.29673 0 39.09461 3.625419 38.92162 38.993529v73.006477 73.00647c.17299 35.36812-3.62489 38.99353-38.92162 38.99353h-146.156758c-35.296716 0-38.921616-3.625-38.921616-38.99353v-73.00647-73.006477c0-35.36853 3.6249-38.993529 38.921616-38.993529z" fill="#46a926"/>
  <path d="m56.805392 15.174464c-35.296728 0-39.09487 3.626029-38.92188 38.994139v2c-.17299-35.36811 3.625152-38.99414 38.92188-38.99414h146.156238c35.29673 0 38.92188 3.62561 38.92188 38.99414v-2c0-35.36853-3.62515-38.994139-38.92188-38.994139z" fill="#fff" opacity=".3"/>
  <path d="m56.810792 239.17447c-35.296731 0-39.094875-3.62603-38.921885-38.99414v-2c-.17299 35.36811 3.625154 38.99414 38.921885 38.99414h146.156238c35.29673 0 38.92188-3.62561 38.92188-38.99414v2c0 35.36853-3.62515 38.99414-38.92188 38.99414z" opacity=".2"/>
  <g transform="translate(-3.344176 7.717282)">
    <path d="m114.12305 59.626953s-9.16708-.168665-18.960941 3.912109c-9.793859 4.080775-21.722656 15.234047-21.722656 31.986329 0 16.752279 11.928797 27.905559 21.722656 31.986329 9.793861 4.08077 18.960941 3.91211 18.960941 3.91211h38.29101s5.19258.16813 9.75782 2.07031c4.56523 1.90218 6.99414 2.71498 6.99414 9.89453 0 7.17956-2.42891 7.9943-6.99414 9.89649-4.56524 1.90218-9.75782 2.07031-9.75782 2.07031h-67.00781a11.967111 11.967111 0 1 0 0 23.93164h67.00781s9.16708.16867 18.96094-3.91211 21.72266-15.23405 21.72266-31.98633-11.9288-27.9036-21.72266-31.98437c-9.79386-4.08078-18.96094-3.91211-18.96094-3.91211h-38.29101s-5.19062-.17009-9.75586-2.07227c-4.565242-1.90218-6.996096-2.71498-6.996096-9.894529 0-7.17955 2.430854-7.992349 6.996096-9.894532 4.56524-1.902183 9.75586-2.070312 9.75586-2.070312h67.00976a11.967111 11.967111 0 1 0 0-23.933594z" fill="#f4fff1"/>
    <path d="m114.12305 59.626953s-9.16708-.168665-18.960941 3.912109c-9.793859 4.080776-21.722656 15.234047-21.722656 31.986329 0 .336735.01391.667801.02344 1 .46435-16.194398 12.102225-26.987581 21.699218-30.986329 9.793859-4.080774 18.960939-3.912109 18.960939-3.912109h67.00976a11.967111 11.967111 0 0 1 12.00196 11.023438 11.967111 11.967111 0 0 0 -12.00196-13.023438zm-16.728519 36.898438c-.01168.322582-.02344.647626-.02344 1 0 7.179549 2.430852 7.992349 6.996099 9.894529 4.56524 1.90218 9.75586 2.07227 9.75586 2.07227h38.29101s9.16708-.16867 18.96094 3.91211c9.59699 3.99874 21.23487 14.79005 21.69922 30.98437.01-.3322.0234-.66326.0234-1 0-16.75228-11.9288-27.9036-21.72266-31.98437-9.79386-4.08078-18.96094-3.91211-18.96094-3.91211h-38.29101s-5.19062-.17009-9.75586-2.07227c-4.34118-1.80882-6.746438-2.64456-6.972662-8.894529zm71.748049 47.863279c-.22605 6.25015-2.62954 7.08766-6.9707 8.89649-4.56524 1.90218-9.75782 2.07031-9.75782 2.07031h-67.00781a11.967111 11.967111 0 0 0 -12.09375 12.89648 11.967111 11.967111 0 0 1 12.09375-10.89648h67.00781s5.19258-.16813 9.75782-2.07031c4.56522-1.90219 6.99414-2.71693 6.99414-9.89649 0-.35237-.0118-.67742-.0234-1z" fill="#fff"/>
    <path d="m193.13477 70.650391a11.967111 11.967111 0 0 1 -12.00196 10.910156h-67.00976s-5.19062.168129-9.75586 2.070312c-4.565245 1.902183-6.996096 2.714982-6.996096 9.894532 0 .352374.01176.677417.02344 1 .226224-6.249966 2.631476-7.085708 6.972656-8.894532 4.56524-1.902183 9.75586-2.070312 9.75586-2.070312h67.00976a11.967111 11.967111 0 0 0 12.00196-12.910156zm-119.671879 23.875c-.0095.332199-.02344.663264-.02344 1 0 16.752279 11.928797 27.905559 21.722656 31.986329 9.793863 4.08077 18.960943 3.91211 18.960943 3.91211h38.29101s5.19257.16813 9.75782 2.07031c4.34116 1.80882 6.74465 2.64457 6.9707 8.89453.0117-.32259.0234-.64762.0234-1 0-7.17955-2.42891-7.99235-6.99414-9.89453-4.56525-1.90218-9.75782-2.07031-9.75782-2.07031h-38.29101s-9.16708.16866-18.960943-3.91211c-9.596951-3.99874-21.234826-14.79193-21.699176-30.986329zm119.611329 47.863279c-.46435 16.1944-12.10223 26.98758-21.69922 30.98633-9.79386 4.08078-18.96094 3.91211-18.96094 3.91211h-67.00781a11.967111 11.967111 0 0 1 -12.09375-11.03516 11.967111 11.967111 0 0 0 12.09375 13.03516h67.00781s9.16708.16867 18.96094-3.91211 21.72266-15.23405 21.72266-31.98633c0-.33673-.0139-.6678-.0234-1z" opacity=".2"/>
  </g>
</svg>

<svg xmlns="http://www.w3.org/2000/svg" xmlns:xlink="http://www.w3.org/1999/xlink" style="enable-background:new" width="256" height="256" version="1.0" viewBox="0 0 256 256">
 <title id="title4162">
  Adwaita Icon Template
 </title>
 <defs>
  <linearGradient id="linearGradient1115">
   <stop id="stop1103" offset="0" style="stop-color:#d5d3cf"/>
   <stop style="stop-color:#e3e2df" id="stop1105" offset=".038"/>
   <stop style="stop-color:#c0bfbc" id="stop1107" offset=".077"/>
   <stop style="stop-color:#c0bfbc" id="stop1109" offset=".923"/>
   <stop style="stop-color:#e3e2df" id="stop1111" offset=".962"/>
   <stop id="stop1113" offset="1" style="stop-color:#d5d3cf"/>
  </linearGradient>
  <linearGradient id="linearGradient6058">
   <stop style="stop-color:#ffffff" id="stop6054" offset="0"/>
   <stop style="stop-color:#f6f5f4" id="stop6056" offset="1"/>
  </linearGradient>
  <linearGradient id="paint3_linear-2-6-5" x2="1" gradientTransform="matrix(0,6,-12,0,-64,209.99687)" gradientUnits="userSpaceOnUse">
   <stop id="stop91-0-7-4" stop-color="#C01C27"/>
   <stop id="stop93-2-5-7" offset="1" stop-color="#E01B24"/>
  </linearGradient>
  <linearGradient id="linearGradient1097" x1="43.844" x2="-60" y1="234" y2="234" gradientTransform="matrix(1.0015061,0,0,0.99993452,72.09037,56.015192)" gradientUnits="userSpaceOnUse" xlink:href="#linearGradient1115"/>
  <radialGradient id="radialGradient1099" cx="-24.239" cy="225.596" r="24" fx="-24.239" fy="225.596" gradientTransform="matrix(1.757743,-9.5621778e-8,3.7652438e-8,1.9495846,106.60563,-336.54495)" gradientUnits="userSpaceOnUse" xlink:href="#linearGradient6058"/>
  <linearGradient id="linearGradient1383" x2="1" gradientTransform="matrix(0,6,-12,0,-264,209.99687)" gradientUnits="userSpaceOnUse" xlink:href="#paint3_linear-2-6-5"/>
  <linearGradient id="linearGradient4358" x1="88" x2="488" y1="88" y2="488" gradientUnits="userSpaceOnUse" xlink:href="#linearGradient4360"/>
  <linearGradient id="linearGradient4360">
   <stop id="stop4362" offset="0" style="stop-color:#000000;stop-opacity:0.58823532"/>
   <stop id="stop4366" offset="1" style="stop-color:#000000;stop-opacity:0.20555556"/>
  </linearGradient>
  <filter style="color-interpolation-filters:sRGB" id="filter4380" width="1.106" height="1.088" x="-.05" y="-.04">
   <feGaussianBlur id="feGaussianBlur4382" stdDeviation="8.48"/>
  </filter>
  <filter style="color-interpolation-filters:sRGB" id="filter4346" width="1.026" height="1.022" x="-.01" y="-.01">
   <feGaussianBlur id="feGaussianBlur4348" stdDeviation="2.12"/>
  </filter>
 </defs>
 <path style="opacity:0.1;filter:url(#filter4346)" d="M 141.84323,74 C 71.24979,74 63.65402,81.250835 64,151.98706 V 298 444.01294 C 63.65402,514.74917 71.24979,522 141.84323,522 H 434.15677 C 504.75021,522 513.9371,514.72348 512,444.01294 V 298 151.98706 C 512,81.249993 504.75021,74 434.15677,74 Z" transform="matrix(0.5,0,0,0.5,-14.116488,-20.825537)"/>
 <path d="M 141.84323,74 C 71.24979,74 63.65402,81.250835 64,151.98706 V 298 444.01294 C 63.65402,514.74917 71.24979,522 141.84323,522 H 434.15677 C 504.75021,522 513.9371,514.72348 512,444.01294 V 298 151.98706 C 512,81.249993 504.75021,74 434.15677,74 Z" transform="matrix(0.5,0,0,0.5,-14.116488,-20.825235)" style="opacity:0.3;fill:url(#linearGradient4358);filter:url(#filter4380)"/>
 <path style="opacity:0.2" d="m 55.695112,13.174464 c -36.098811,0 -39.983003,3.690159 -39.806081,39.689839 v 74.310167 74.31016 c -0.176922,35.99969 3.70727,39.68984 39.806081,39.68984 H 204.08243 c 36.09881,0 40.77464,-3.70276 39.80608,-39.68984 V 127.17447 52.864303 c 0,-36.00011 -3.70727,-39.689839 -39.80608,-39.689839 z"/>
 <path style="fill:#46a926" d="m 202.95649,15.174464 c 35.29673,0 39.09461,3.625419 38.92162,38.993529 v 73.006477 73.00647 c 0.17299,35.36812 -3.62489,38.99353 -38.92162,38.99353 H 56.799732 c -35.296716,0 -38.921616,-3.625 -38.921616,-38.99353 V 127.17447 54.167993 c 0,-35.36853 3.6249,-38.993529 38.921616,-38.993529 z"/>
 <path style="opacity:0.3;fill:#ffffff" d="m 56.805392,15.174464 c -35.296728,0 -39.09487,3.626029 -38.92188,38.994139 v 2 c -0.17299,-35.36811 3.625152,-38.99414 38.92188,-38.99414 H 202.96163 c 35.29673,0 38.92188,3.62561 38.92188,38.99414 v -2 c 0,-35.36853 -3.62515,-38.994139 -38.92188,-38.994139 z"/>
 <path style="opacity:0.2" d="m 56.810792,239.17447 c -35.296731,0 -39.094875,-3.62603 -38.921885,-38.99414 v -2 c -0.17299,35.36811 3.625154,38.99414 38.921885,38.99414 H 202.96703 c 35.29673,0 38.92188,-3.62561 38.92188,-38.99414 v 2 c 0,35.36853 -3.62515,38.99414 -38.92188,38.99414 z"/>
 <g transform="translate(-3.3441761,7.7172816)">
  <path d="m 114.12305,59.626953 c 0,0 -9.16708,-0.168665 -18.960941,3.912109 -9.793859,4.080775 -21.722656,15.234047 -21.722656,31.986329 0,16.752279 11.928797,27.905559 21.722656,31.986329 9.793861,4.08077 18.960941,3.91211 18.960941,3.91211 h 38.29101 c 0,0 5.19258,0.16813 9.75782,2.07031 4.56523,1.90218 6.99414,2.71498 6.99414,9.89453 0,7.17956 -2.42891,7.9943 -6.99414,9.89649 -4.56524,1.90218 -9.75782,2.07031 -9.75782,2.07031 H 85.40625 a 11.967111,11.967111 0 1 0 0,23.93164 h 67.00781 c 0,0 9.16708,0.16867 18.96094,-3.91211 9.79386,-4.08078 21.72266,-15.23405 21.72266,-31.98633 0,-16.75228 -11.9288,-27.9036 -21.72266,-31.98437 -9.79386,-4.08078 -18.96094,-3.91211 -18.96094,-3.91211 h -38.29101 c 0,0 -5.19062,-0.17009 -9.75586,-2.07227 -4.565242,-1.90218 -6.996096,-2.71498 -6.996096,-9.894529 0,-7.17955 2.430854,-7.992349 6.996096,-9.894532 4.56524,-1.902183 9.75586,-2.070312 9.75586,-2.070312 h 67.00976 a 11.967111,11.967111 0 1 0 0,-23.933594 z" style="fill:#f4fff1"/>
  <path d="m 114.12305,59.626953 c 0,0 -9.16708,-0.168665 -18.960941,3.912109 -9.793859,4.080776 -21.722656,15.234047 -21.722656,31.986329 0,0.336735 0.01391,0.667801 0.02344,1 0.46435,-16.194398 12.102225,-26.987581 21.699218,-30.986329 9.793859,-4.080774 18.960939,-3.912109 18.960939,-3.912109 h 67.00976 A 11.967111,11.967111 0 0 1 193.13477,72.650391 11.967111,11.967111 0 0 0 181.13281,59.626953 Z M 97.394531,96.525391 c -0.01168,0.322582 -0.02344,0.647626 -0.02344,1 0,7.179549 2.430852,7.992349 6.996099,9.894529 4.56524,1.90218 9.75586,2.07227 9.75586,2.07227 h 38.29101 c 0,0 9.16708,-0.16867 18.96094,3.91211 9.59699,3.99874 21.23487,14.79005 21.69922,30.98437 0.01,-0.3322 0.0234,-0.66326 0.0234,-1 0,-16.75228 -11.9288,-27.9036 -21.72266,-31.98437 -9.79386,-4.08078 -18.96094,-3.91211 -18.96094,-3.91211 h -38.29101 c 0,0 -5.19062,-0.17009 -9.75586,-2.07227 -4.34118,-1.80882 -6.746438,-2.64456 -6.972662,-8.894529 z m 71.748049,47.863279 c -0.22605,6.25015 -2.62954,7.08766 -6.9707,8.89649 -4.56524,1.90218 -9.75782,2.07031 -9.75782,2.07031 H 85.40625 A 11.967111,11.967111 0 0 0 73.3125,168.25195 11.967111,11.967111 0 0 1 85.40625,157.35547 h 67.00781 c 0,0 5.19258,-0.16813 9.75782,-2.07031 4.56522,-1.90219 6.99414,-2.71693 6.99414,-9.89649 0,-0.35237 -0.0118,-0.67742 -0.0234,-1 z" style="fill:#ffffff"/>
  <path d="m 193.13477,70.650391 a 11.967111,11.967111 0 0 1 -12.00196,10.910156 h -67.00976 c 0,0 -5.19062,0.168129 -9.75586,2.070312 -4.565245,1.902183 -6.996096,2.714982 -6.996096,9.894532 0,0.352374 0.01176,0.677417 0.02344,1 0.226224,-6.249966 2.631476,-7.085708 6.972656,-8.894532 4.56524,-1.902183 9.75586,-2.070312 9.75586,-2.070312 h 67.00976 a 11.967111,11.967111 0 0 0 12.00196,-12.910156 z m -119.671879,23.875 c -0.0095,0.332199 -0.02344,0.663264 -0.02344,1 0,16.752279 11.928797,27.905559 21.722656,31.986329 9.793863,4.08077 18.960943,3.91211 18.960943,3.91211 h 38.29101 c 0,0 5.19257,0.16813 9.75782,2.07031 4.34116,1.80882 6.74465,2.64457 6.9707,8.89453 0.0117,-0.32259 0.0234,-0.64762 0.0234,-1 0,-7.17955 -2.42891,-7.99235 -6.99414,-9.89453 -4.56525,-1.90218 -9.75782,-2.07031 -9.75782,-2.07031 h -38.29101 c 0,0 -9.16708,0.16866 -18.960943,-3.91211 C 85.565116,121.51298 73.927241,110.71979 73.462891,94.525391 Z M 193.07422,142.38867 c -0.46435,16.1944 -12.10223,26.98758 -21.69922,30.98633 -9.79386,4.08078 -18.96094,3.91211 -18.96094,3.91211 H 85.40625 A 11.967111,11.967111 0 0 1 73.3125,166.25195 11.967111,11.967111 0 0 0 85.40625,179.28711 h 67.00781 c 0,0 9.16708,0.16867 18.96094,-3.91211 9.79386,-4.08078 21.72266,-15.23405 21.72266,-31.98633 0,-0.33673 -0.0139,-0.6678 -0.0234,-1 z" style="opacity:0.2"/>
 </g>
</svg>
